assets/images/process_arr1.svg

<svg width="349" height="54" viewBox="0 0 349 54" fill="none" xmlns="http://www.w3.org/2000/svg">
<path d="M348.298 14.083C348.896 12.5379 348.128 10.8004 346.583 10.2023L321.404 0.455456C319.859 -0.142659 318.121 0.625048 317.523 2.17018C316.925 3.71531 317.693 5.45275 319.238 6.05086L341.619 14.7147L332.955 37.0964C332.357 38.6415 333.125 40.3789 334.67 40.977C336.215 41.5752 337.953 40.8075 338.551 39.2623L348.298 14.083ZM0.665388 15.6868C26.3829 28.4615 78.858 54 171 54V48C80.142 48 28.6171 22.8718 3.33461 10.3132L0.665388 15.6868ZM171 54C259.622 54 317.911 28.4703 346.712 15.7441L344.288 10.2559C315.756 22.863 258.378 48 171 48V54Z" fill="black"/>
</svg>

<svg width="349" height="54" fill="none" xmlns="http://www.w3.org/2000/svg"><path d="M348.298 14.083a3 3 0 00-1.715-3.88L321.404.454a3 3 0 00-2.166 5.596l22.381 8.664-8.664 22.381a3 3 0 005.596 2.166l9.747-25.179zM.665 15.687C26.383 28.462 78.858 54 171 54v-6C80.142 48 28.617 22.872 3.335 10.313l-2.67 5.374zM171 54c88.622 0 146.911-25.53 175.712-38.256l-2.424-5.488C315.756 22.863 258.378 48 171 48v6z" fill="#000"/></svg>
